src/standard/locker-day-use.svg

<svg xmlns="http://www.w3.org/2000/svg" viewBox="0 0 36 36">
  <path d="M14.5 8.38h-6a.62.62 0 0 0 0 1.24h6a.62.62 0 0 0 0-1.24Zm0 3h-6a.62.62 0 0 0 0 1.24h6a.62.62 0 0 0 0-1.24Zm7-1.76h6a.62.62 0 0 0 0-1.24h-6a.62.62 0 0 0 0 1.24ZM28.12 12a.62.62 0 0 0-.62-.62h-6a.62.62 0 0 0 0 1.24h6a.62.62 0 0 0 .62-.62ZM8.5 16.84a.63.63 0 0 0-.62.63v3.06a.62.62 0 1 0 1.24 0v-3.06a.63.63 0 0 0-.62-.63Z"/>
  <path d="M21.57 30.38h-2.95V5.62h11.76v16a.62.62 0 0 0 1.24 0V5a.62.62 0 0 0-.62-.62H5a.62.62 0 0 0-.62.62v26a.62.62 0 0 0 .62.62h16.57a.62.62 0 0 0 0-1.24ZM5.62 5.62h11.76v24.76H5.62Z"/>
  <path d="M20.88 17.47v3.06a.62.62 0 0 0 1.24 0v-3.06a.62.62 0 0 0-1.24 0Zm6.87 8.41a1.87 1.87 0 0 0 0 3.74 1.87 1.87 0 0 0 0-3.74Zm0 4.74c-.85 0-.59 1.08-.62 1.63a.63.63 0 0 0 .62.63c.85 0 .59-1.08.62-1.63a.63.63 0 0 0-.62-.63Zm0-5.74c.85 0 .59-1.08.62-1.63a.63.63 0 0 0-.62-.63c-.85 0-.59 1.08-.62 1.63a.63.63 0 0 0 .62.63Zm-2.87 2.87c0-.85-1.08-.59-1.63-.62a.63.63 0 0 0-.63.62c0 .85 1.08.59 1.63.62a.63.63 0 0 0 .63-.62Zm7.37-.63h-1a.63.63 0 0 0 0 1.25h1a.63.63 0 0 0 0-1.25Zm-7.42 2.66-.7.71a.62.62 0 0 0 .88.88l.71-.7a.63.63 0 0 0-.89-.89Zm5.66-5.65-.71.7a.63.63 0 0 0 .89.89l.7-.71a.62.62 0 0 0-.88-.88Zm-6.36 0c-.59.6.35 1.18.7 1.59a.64.64 0 0 0 .89 0c.58-.61-.35-1.19-.71-1.59a.61.61 0 0 0-.88 0Zm6.54 5.65a.63.63 0 0 0-.89.89c.26.2.77.94 1.15.89a.63.63 0 0 0 .44-1.07Z"/>
</svg>

<svg id="a78171f2-6f98-4568-98cd-64fcb3f39bab" data-name="Layer 1" xmlns="http://www.w3.org/2000/svg" viewBox="0 0 36 36">
  <title>Locker for day use icon - Black</title>
<desc>storage, cabinet, personal, temporary, GWS, office and work</desc>
<metadata><?xpacket begin="﻿" id="W5M0MpCehiHzreSzNTczkc9d"?>
<x:xmpmeta xmlns:x="adobe:ns:meta/" x:xmptk="Adobe XMP Core 8.0-c001 1.000000, 0000/00/00-00:00:00        ">
   <rdf:RDF xmlns:rdf="http://www.w3.org/1999/02/22-rdf-syntax-ns#">
      <rdf:Description rdf:about=""
            xmlns:xmp="http://ns.adobe.com/xap/1.0/"
            xmlns:dc="http://purl.org/dc/elements/1.1/"
            xmlns:cq="http://www.day.com/jcr/cq/1.0"
            xmlns:tiff="http://ns.adobe.com/tiff/1.0/">
         <xmp:rhcc-effective-on>2023-12-08T17:46:57.544Z</xmp:rhcc-effective-on>
         <xmp:rhcc-metadata-complete-moderator>pending</xmp:rhcc-metadata-complete-moderator>
         <xmp:rhcc-translation-id>TRA27a521ff-6270-4e18-a90f-a56f7875cbfa</xmp:rhcc-translation-id>
         <xmp:brand-content-type>Icon</xmp:brand-content-type>
         <xmp:CreateDate>2023-12-08T17:46:57.544Z</xmp:CreateDate>
         <xmp:rhcc-effective-on-set-on-upload>true</xmp:rhcc-effective-on-set-on-upload>
         <xmp:rhcc-metadata-complete-uploader>pending</xmp:rhcc-metadata-complete-uploader>
         <xmp:rhcc-file-last-modified>2023-12-08T17:47:08.664Z</xmp:rhcc-file-last-modified>
         <xmp:rhcc-audience>rhcc-audience:internal</xmp:rhcc-audience>
         <xmp:rhcc-rights-restricted>no</xmp:rhcc-rights-restricted>
         <xmp:brand-content-subtype>Icon</xmp:brand-content-subtype>
         <xmp:rhcc-derivative-id>DER27a521ff-6270-4e18-a90f-a56f7875cbfa</xmp:rhcc-derivative-id>
         <xmp:brand-logo-color>Black</xmp:brand-logo-color>
         <xmp:rhcc-notify-portal-subscribers-on-change>yes</xmp:rhcc-notify-portal-subscribers-on-change>
         <dc:format>image/svg+xml</dc:format>
         <dc:modified>2024-02-09T20:23:30.274Z</dc:modified>
         <dc:title>
            <rdf:Alt>
               <rdf:li xml:lang="x-default">Locker for day use icon - Black</rdf:li>
            </rdf:Alt>
         </dc:title>
         <dc:description>
            <rdf:Alt>
               <rdf:li xml:lang="x-default">storage, cabinet, personal, temporary, GWS, office and work</rdf:li>
            </rdf:Alt>
         </dc:description>
         <cq:lastReplicationAction_scene7>Activate</cq:lastReplicationAction_scene7>
         <cq:lastReplicationAction_publish>Activate</cq:lastReplicationAction_publish>
         <cq:lastReplicated_publish>2024-02-09T22:04:55.956Z</cq:lastReplicated_publish>
         <cq:lastReplicatedBy>workflow-process-service</cq:lastReplicatedBy>
         <cq:lastReplicationAction>Activate</cq:lastReplicationAction>
         <cq:lastReplicatedBy_publish>workflow-process-service</cq:lastReplicatedBy_publish>
         <cq:isDelivered>true</cq:isDelivered>
         <cq:lastReplicated>2024-02-09T22:04:55.956Z</cq:lastReplicated>
         <cq:lastReplicatedBy_scene7>workflow-process-service</cq:lastReplicatedBy_scene7>
         <cq:lastReplicated_scene7>2024-02-09T22:04:55.956Z</cq:lastReplicated_scene7>
         <tiff:ImageLength>36</tiff:ImageLength>
         <tiff:ImageWidth>36</tiff:ImageWidth>
      </rdf:Description>
   </rdf:RDF>
</x:xmpmeta>
                                                                                                    
                                                                                                    
                                                                                                    
                                                                                                    
                                                                                                    
                                                                                                    
                                                                                                    
                                                                                                    
                                                                                                    
                                                                                                    
                                 
<?xpacket end="w"?></metadata>
<g>
    <path d="M14.5,8.38h-6a.62.62,0,0,0,0,1.24h6A.62.62,0,0,0,14.5,8.38Z"/>
    <path d="M14.5,11.38h-6a.62.62,0,0,0,0,1.24h6A.62.62,0,0,0,14.5,11.38Z"/>
    <path d="M21.5,9.62h6a.62.62,0,0,0,0-1.24h-6A.62.62,0,0,0,21.5,9.62Z"/>
    <path d="M28.12,12a.62.62,0,0,0-.62-.62h-6a.62.62,0,0,0,0,1.24h6A.62.62,0,0,0,28.12,12Z"/>
    <path d="M8.5,16.84a.63.63,0,0,0-.62.63v3.06a.62.62,0,1,0,1.24,0V17.47A.63.63,0,0,0,8.5,16.84Z"/>
    <path d="M21.57,30.38H18.62V5.62H30.38v16a.62.62,0,0,0,1.24,0V5A.62.62,0,0,0,31,4.38H5A.62.62,0,0,0,4.38,5V31a.62.62,0,0,0,.62.62H21.57A.62.62,0,0,0,21.57,30.38ZM5.62,5.62H17.38V30.38H5.62Z"/>
    <path d="M20.88,17.47v3.06a.62.62,0,0,0,1.24,0V17.47A.62.62,0,0,0,20.88,17.47Z"/>
    <path d="M27.75,25.88a1.87,1.87,0,0,0,0,3.74A1.87,1.87,0,0,0,27.75,25.88Z"/>
    <path d="M27.75,30.62c-.85,0-.59,1.08-.62,1.63a.63.63,0,0,0,.62.63c.85,0,.59-1.08.62-1.63A.63.63,0,0,0,27.75,30.62Z"/>
    <path d="M27.75,24.88c.85,0,.59-1.08.62-1.63a.63.63,0,0,0-.62-.63c-.85,0-.59,1.08-.62,1.63A.63.63,0,0,0,27.75,24.88Z"/>
    <path d="M24.88,27.75c0-.85-1.08-.59-1.63-.62a.63.63,0,0,0-.63.62c0,.85,1.08.59,1.63.62A.63.63,0,0,0,24.88,27.75Z"/>
    <path d="M32.25,27.12h-1a.63.63,0,0,0,0,1.25h1A.63.63,0,0,0,32.25,27.12Z"/>
    <path d="M24.83,29.78l-.7.71a.62.62,0,0,0,.88.88l.71-.7A.63.63,0,0,0,24.83,29.78Z"/>
    <path d="M30.49,24.13l-.71.7a.63.63,0,0,0,.89.89l.7-.71A.62.62,0,0,0,30.49,24.13Z"/>
    <path d="M24.13,24.13c-.59.6.35,1.18.7,1.59a.64.64,0,0,0,.89,0c.58-.61-.35-1.19-.71-1.59A.61.61,0,0,0,24.13,24.13Z"/>
    <path d="M30.67,29.78a.63.63,0,0,0-.89.89c.26.2.77.94,1.15.89a.63.63,0,0,0,.44-1.07Z"/>
  </g>
</svg>
